X:1
T:Trusting Thee
T:Trusting Thee
T:James Ramsey Murray
T:Mary E. Chamberlain Wyeth, 1877
T:Public Domain Courtesy of the Cyber Hymnal™
C:James Ramsey Murray
Z:Public Domain
Z:Courtesy of the Cyber Hymnal™
%%score ( 1 2 ) 3
L:1/8
Q:1/4=90
M:3/4
K:G
V:1 treble 
V:2 treble 
V:3 bass 
V:1
 [DG][GA] | [GB]3 G [FB][FA] | [=Fd]4 [EG][EA] | [DB]3 [GB] [FB][FA] | G4 G[GA] | %5
w: 1.~I am|trust- ing, Lord, in|Thee; Though the|night is cold and|dark, And the|
w: 2.~Long the|jour- ney, rough the|main, Still the|har- bor far a-|way— And I|
w: 3.~Though Thy|pur- pos- es seem|dark, Thou art|faith- ful to per-|form. And Thou|
w: 4.~So, o-|bey- ing Thy com-|mand, I am|trust- ing, Lord, in|Thee. I am|
 [GB]3 [GB] [FB][FA] | [=Fd]4 [EG][EA] | [DB]3 [GB] [FB][FA] | G4 ||"^Refrain" GG | %10
w: rag- ing, storm- y|sea Threat- ens|to en- gulf my|bark.||
w: toil in numb- ing|pain, Through the|bil- lows’ ic- y|spray.|I am|
w: bid’st me to em-|bark, And cross|o- ver in the|storm.||
w: wear- y, far from|land, But sal-|va- tion I shall|see.||
 [Ge]3 [Ge] [Gc][Ge] | [Gd]4 [GB][FA] | G3 [DA] [GB][Gd] | [FA]4 BB | G4 [GB][Gd] | %15
w: |||||
w: trust- ing, Lord in|Thee, I am|trust- ing, Lord in|Thee, Trust- ing|Thee, trust- ing|
w: |||||
w: |||||
 !fermata![Ge]4 [EG][EA] | [DB]3 [GB] [FB][FA] | G4 |] %18
w: |||
w: Thee, I am|trust- ing all to|Thee.|
w: |||
w: |||
V:2
 x2 | x3 G x2 | x6 | x6 | G4 G x | x6 | x6 | x6 | G4 || GG | x6 | x6 | G3 x3 | x4 BB | G4 x2 | x6 | %16
 x6 | G4 |] %18
V:3
 [G,B,][G,C] | [G,D]3 [G,D] [D,D][C,D] | [B,,D]4 [C,C][C,C] | [D,G,]3 [D,D] [D,D][D,C] | %4
 [G,B,]4 [G,B,][G,C] | [G,D]3 [G,D] [D,D][C,D] | [B,,D]4 [C,C][C,C] | [D,G,]3 [D,D] [D,D][D,C] | %8
 [G,B,]4 || [G,B,][G,B,] | [C,C]3 [C,C] [E,C][C,C] | [G,B,]4 [D,D][D,C] | %12
 [E,B,]3 [E,D] [G,D][B,,D] | [D,D]4 DD | B,4 [G,D][G,B,] | [C,C]4 [E,^C][E,C] | %16
 [D,D]3 [D,D] [D,D][D,C] | [G,B,]4 |] %18

